X:1
T:Title
%%score 1 2
L:1/8
Q:1/4=85
M:6/8
K:A
V:1 treble nm="Grand Piano, Soprano"
V:2 bass nm="Choir Pad, The Wonderful Story (Sims)"
V:1
 [Ec]>[Ec][Ec] [Ec][DB][CA] | [DB]<[DA][DF] [CE]3 | [DF]>[EG][FA] E[EA][Ec] | [EB]6 | %4
w: By~Maud~Sims,~1900 * * * * *||||
 [Ec]>[Ec][Ec] [Ec][DB][CA] | [DB]<[DA][DF] [CE]3 | [DF]>[EG][FA] [CE][Ec]>[DB] | [CA]6 | %8
w: ||||
 [EB]>[EB][EB] [EB] E2 | [Ec]>[Ec][Ec] [Ec] [CA]2 | [EA]>[EA][CA] [CA] [CA]2 | %11
w: |||
 [^DA]>[DB][Dc] [Ec] [EB]2 | [Ec]>[Ec][Ec] [Ec][DB][CA] | [DB]<[DA][DF] [CE]3 | %14
w: |||
 [DF]>[EG][FA] E[EA][FB] | [Ec]<[Ec][DB] [CA]3- | [CA]6 |] %17
w: |||
V:2
 [A,,A,]>[A,,A,][A,,A,] [A,,A,][A,,E,][A,,E,] | [D,F,]<[D,F,][D,A,] [A,,A,]3 | %2
 [D,A,]>[D,A,][D,A,] [C,A,][C,A,][A,,A,] | [E,G,]6 | [A,,A,]>[A,,A,][A,,A,] [A,,A,][A,,E,][A,,E,] | %5
 [D,F,]<[D,F,][D,A,] [A,,A,]3 | [D,A,]>[D,A,][D,A,] [E,A,][E,A,]>[E,G,] | [A,,A,]6 | %8
 [E,G,]>[E,G,][E,G,] [E,G,] [E,G,]2 | [A,,A,]>[C,A,][E,A,] A, A,2 | [A,C]>[A,C]A, [F,A,] [F,A,]2 | %11
 [B,,F,]>[B,,F,][B,,A,] [E,A,] [E,G,]2 | [A,,A,]>[A,,A,][A,,A,] [A,,A,][A,,E,][A,,E,] | %13
 [D,F,]<[D,F,][D,A,] [A,,A,]3 | [D,A,]>[D,A,][D,A,] [C,A,][C,A,][D,A,] | %15
 [E,A,]<[E,A,]E, [A,,E,]3- | [A,,E,]6 |] %17

